X:945
T:The Runaway Bride.
B:O'Neill's 945
Z:Transcribed by Tom Keays (htkeays@mailbox.syr.edu)
Z:abc 1.6
M:6/8
R:Jig
L:1/8
K:G
d/c/|BcB AGA|GAG GBd|edd gdB|cBAG A2 d/c/|
B2 B AGA|GAG GBd|efg faf|gag g2 :|
||d|efg fga|ded dcB|edc BAG|cBAG A d/c/|
BcB AGA|GAG GBd|efg faf|gag g2 :|
